icon/lg/aix.svg

<?xml version="1.0" encoding="UTF-8"?>
<svg viewBox="0 0 512 207" version="1.1" xmlns="http://www.w3.org/2000/svg" preserveAspectRatio="xMidYMid" height="1em" width="1em">
  <defs>
    <linearGradient x1="5.80684637%" y1="101.291466%" x2="274.5874%" y2="-4.880124%" id="aixLinearGradient-1">
      <stop stop-color="#6FDC8C" offset="0%"/>
      <stop stop-color="#6FDC8C" offset="30.49%"/>
      <stop stop-color="#009D9A" offset="92.79%"/>
      <stop stop-color="#009D9A" offset="100%"/>
    </linearGradient>
    <linearGradient x1="-9.90395796%" y1="101.291184%" x2="128.370967%" y2="-4.85717932%" id="aixLinearGradient-2">
      <stop stop-color="#6FDC8C" offset="0%"/>
      <stop stop-color="#6FDC8C" offset="30.49%"/>
      <stop stop-color="#009D9A" offset="92.79%"/>
      <stop stop-color="#009D9A" offset="100%"/>
    </linearGradient>
    <linearGradient x1="-136.657951%" y1="101.291184%" x2="130.350038%" y2="-4.85717932%" id="aixLinearGradient-3">
      <stop stop-color="#6FDC8C" offset="0%"/>
      <stop stop-color="#6FDC8C" offset="30.49%"/>
      <stop stop-color="#009D9A" offset="92.79%"/>
      <stop stop-color="#009D9A" offset="100%"/>
    </linearGradient>
  </defs>
  <g>
    <path d="M142.163447,206.177673 L127.567608,157.147892 L59.5438336,157.147892 L44.9479941,206.177673 L-1.42108547e-14,206.177673 L67.1471025,0.0451055946 L122.020802,0.0451055946 L188.291233,206.177673 L142.163447,206.177673 Z M93.9910847,40.7904927 L92.5315007,40.7904927 L70.0500743,119.063735 L116.751412,119.063735 L93.9910847,40.7904927 Z" fill="url(#aixLinearGradient-1)"/>
    <polygon fill="url(#aixLinearGradient-2)" points="208.731055 206.177673 208.731055 170.439007 235.001486 170.439007 235.001486 35.7386661 208.731055 35.7386661 208.731055 2.84217094e-14 305.640416 2.84217094e-14 305.640416 35.7386661 279.369985 35.7386661 279.369985 170.439007 305.640416 170.439007 305.640416 206.177673"/>
    <polygon fill="url(#aixLinearGradient-3)" points="512 206.177673 460.618128 206.177673 416.531947 130.264957 415.656166 130.264957 372.743834 206.177673 324.868648 206.177673 390.262407 99.5480473 328.078158 0 379.742348 0 419.445171 69.7031789 420.320951 69.7031789 460.603269 0 508.478455 0 445.71471 100.435124"/>
  </g>
</svg>

<svg width="512" height="207" xmlns="http://www.w3.org/2000/svg" preserveAspectRatio="xMidYMid"><defs><linearGradient x1="5.807%" y1="101.291%" x2="274.587%" y2="-4.88%" id="a"><stop stop-color="#6FDC8C" offset="0%"/><stop stop-color="#6FDC8C" offset="30.49%"/><stop stop-color="#009D9A" offset="92.79%"/><stop stop-color="#009D9A" offset="100%"/></linearGradient><linearGradient x1="-9.904%" y1="101.291%" x2="128.371%" y2="-4.857%" id="b"><stop stop-color="#6FDC8C" offset="0%"/><stop stop-color="#6FDC8C" offset="30.49%"/><stop stop-color="#009D9A" offset="92.79%"/><stop stop-color="#009D9A" offset="100%"/></linearGradient><linearGradient x1="-136.658%" y1="101.291%" x2="130.35%" y2="-4.857%" id="c"><stop stop-color="#6FDC8C" offset="0%"/><stop stop-color="#6FDC8C" offset="30.49%"/><stop stop-color="#009D9A" offset="92.79%"/><stop stop-color="#009D9A" offset="100%"/></linearGradient></defs><path d="m142.163 206.178-14.595-49.03H59.544l-14.596 49.03H0L67.147.045h54.874l66.27 206.133h-46.128ZM93.991 40.79h-1.46l-22.48 78.274h46.7L93.991 40.79Z" fill="url(#a)"/><path fill="url(#b)" d="M208.731 206.178v-35.739h26.27v-134.7h-26.27V0h96.91v35.739H279.37v134.7h26.27v35.739z"/><path fill="url(#c)" d="M512 206.178h-51.382l-44.086-75.913h-.876l-42.912 75.913h-47.875l65.393-106.63L328.078 0h51.664l39.703 69.703h.876L460.603 0h47.875l-62.763 100.435z"/></svg>
